images/index/icons/icon-feature-1.svg

<svg width="16" height="32" viewBox="0 0 16 32" fill="none" xmlns="http://www.w3.org/2000/svg">
<path d="M8 0C6.04198 0.00226696 4.15262 0.721694 2.68899 2.02231C1.22536 3.32294 0.288854 5.11465 0.0564701 7.05882H0V22.9459H16V7.05882H15.9435C15.7111 5.11465 14.7746 3.32294 13.311 2.02231C11.8474 0.721694 9.95802 0.00226696 8 0ZM14.1176 21.0635H1.88235V12.3859C2.05692 12.5964 2.2801 12.7612 2.53263 12.8662C2.78515 12.9711 3.05943 13.013 3.33177 12.9882C4.54588 12.9882 5.33647 12.3106 5.33647 11.4541V10.6353C5.32423 10.5223 5.33593 10.408 5.37079 10.2998C5.40565 10.1917 5.4629 10.0921 5.53881 10.0075C5.61472 9.92291 5.70759 9.85527 5.81137 9.80897C5.91516 9.76266 6.02753 9.73873 6.14118 9.73873C6.25482 9.73873 6.3672 9.76266 6.47098 9.80897C6.57476 9.85527 6.66763 9.92291 6.74354 10.0075C6.81945 10.0921 6.8767 10.1917 6.91156 10.2998C6.94643 10.408 6.95812 10.5223 6.94588 10.6353V13.7318C6.94897 13.9809 7.00493 14.2266 7.11006 14.4525C7.21519 14.6784 7.36708 14.8794 7.5557 15.0422C7.74432 15.205 7.96536 15.326 8.20421 15.397C8.44305 15.468 8.69424 15.4875 8.94118 15.4541C9.18224 15.4885 9.42781 15.4721 9.6622 15.4062C9.89659 15.3402 10.1146 15.2261 10.3024 15.0711C10.4902 14.9161 10.6436 14.7236 10.7528 14.5059C10.8619 14.2883 10.9245 14.0503 10.9365 13.8071V11.7271C10.9213 11.5516 10.9428 11.375 10.9996 11.2083C11.0563 11.0417 11.1471 10.8886 11.2661 10.7589C11.3851 10.6291 11.5298 10.5255 11.691 10.4547C11.8521 10.3838 12.0263 10.3472 12.2024 10.3472C12.3784 10.3472 12.5526 10.3838 12.7137 10.4547C12.8749 10.5255 13.0196 10.6291 13.1386 10.7589C13.2576 10.8886 13.3484 11.0417 13.4052 11.2083C13.4619 11.375 13.4834 11.5516 13.4682 11.7271C13.4651 11.7552 13.4651 11.7836 13.4682 11.8118C13.492 11.994 13.5626 12.1669 13.6731 12.3137C13.7836 12.4605 13.9303 12.5762 14.0988 12.6494V21.12L14.1176 21.0635Z" fill="#2D3440"/>
<path d="M6.58824 30.5882C6.58824 30.9627 6.73698 31.3217 7.00173 31.5865C7.26649 31.8513 7.62558 32 8 32C8.37442 32 8.73351 31.8513 8.99827 31.5865C9.26302 31.3217 9.41176 30.9627 9.41176 30.5882V23.8871H6.58824V30.5882Z" fill="#2D3440"/>
</svg>

<svg width="16" height="32" fill="none" xmlns="http://www.w3.org/2000/svg"><path d="M8 0A8 8 0 0 0 .06 7.06H0v15.89h16V7.05h-.06A8.01 8.01 0 0 0 8 0Zm6.12 21.06H1.88V12.4a1.69 1.69 0 0 0 1.45.6c1.22 0 2-.68 2-1.54v-.81a.81.81 0 1 1 1.62 0v3.1a1.76 1.76 0 0 0 2 1.71 1.75 1.75 0 0 0 1.99-1.64v-2.08a1.27 1.27 0 1 1 2.53 0v.08a1.06 1.06 0 0 0 .63.84v8.47l.02-.06ZM6.59 30.59a1.41 1.41 0 1 0 2.82 0v-6.7H6.6v6.7Z" fill="#2D3440"/></svg>
